src/components/assets/hero-background.svg

<svg fill="none" height="534" viewBox="0 0 458 534" width="458" xmlns="http://www.w3.org/2000/svg" xmlns:xlink="http://www.w3.org/1999/xlink"><linearGradient id="a"><stop offset="0" stop-color="#3d3d3d"/><stop offset="1" stop-color="#272727"/></linearGradient><linearGradient id="b" gradientUnits="userSpaceOnUse" x1="236" x2="-175" xlink:href="#a" y1="193" y2="453"/><linearGradient id="c" gradientUnits="userSpaceOnUse" x1="323.844" x2="213.098" xlink:href="#a" y1="138.946" y2="292.958"/><g opacity=".8"><path d="m146.589 433.47.187.854c.872 4.1 1.599 8.038 2.181 11.814-22.145-14.298-41.483-32.536-57.0146-53.716 3.7664-.375 7.1849-.914 10.2606-1.617 12.558 16.331 27.532 30.727 44.386 42.665zm119.459-381.7259c118.961 0 215.408 95.9859 215.408 214.4049 0 47.504-15.52 91.398-41.788 126.933l-4.01-10.137c23.098-33.153 36.632-73.402 36.632-116.796 0-113.341-92.332-205.2325-206.242-205.2325-25.072 0-49.099 4.4518-71.325 12.6041l-10.135-5.9152c25.13-10.2254 52.634-15.8613 81.46-15.8613z" fill="#272727" stroke="#272727"/><path d="m82.268 248.575 29.54 78.63c8.401 1.445 13.573 3.415 13.573 5.587v.027c.214.953.197 1.997-.052 3.132l.052.001-.165.463c-.228.848-.58 1.745-1.057 2.69-7.827 18.482-25.1361 31.523-46.4386 31.523-20.9895 0-38.908-12.66-46.9988-30.71-.6932-1.3-1.1788-2.502-1.4588-3.606-.0421-.117-.0854-.238-.1283-.36l.0431-.001c-.2195-1.013-.2592-1.94-.1193-2.781l.0762-.378.0087-.154c.2481-2.195 5.7762-4.174 14.554-5.598l29.4755-78.465c1.4187-3.806 7.6669-3.806 9.0953 0zm155.827-.01 29.534 78.612c8.009 1.364 13.124 3.203 13.685 5.24l-.053-.107.122.257c.407.974.451 2.099.131 3.374l.001.002c-.169.666-.431 1.363-.79 2.1-7.627 19.047-25.473 32.575-47.177 32.575-21.471 0-39.729-13.247-47.54-31.961-.465-.915-.836-1.795-1.024-2.62l-.019-.084c-.001-.003-.002-.007-.003-.01l.001-.002-.038-.212c-.112-.745-.064-1.677.144-2.796l.061-.312.009-.054.02-.101c.505-2.111 5.902-4.013 14.352-5.398l29.489-78.503c1.419-3.806 7.667-3.806 9.095 0zm-52.933 83.901-.023.101h.002zm-107.4416-68.344-23.1379 61.589c6.7563-.603 14.4763-.945 22.6752-.945l.925.001c8.2444.026 15.9815.398 22.7113 1.032zm155.8276 0-23.146 61.604c6.796-.612 14.575-.96 22.841-.96l.925.001c8.177.026 15.856.392 22.548 1.017zm-77.231-106.752s11.525 36.091 11.525 42.483c0 4.402-2.546 8.12-6.171 10.072 2.983.966 5.607 2.664 7.657 4.938 4.577-3.981 11.321-7.68 20.999-7.68 11.068 0 20.581 4.831 28.977 9.096 2.672 1.356 5.267 2.654 7.667 3.669 1.788-1.893 4.285-3.103 7.083-3.103 5.423 0 9.815 4.411 9.815 9.857s-4.392 9.857-9.815 9.857c-4.401 0-7.987-2.957-9.231-6.968-3.216-1.23-6.51-2.889-9.902-4.607-7.424-3.767-15.848-8.042-24.594-8.042-8.405 0-13.652 3.914-16.645 7.222.116.84.252 1.669.252 2.538 0 9.769-7.89 17.694-17.617 17.694s-17.617-7.925-17.617-17.694c0-.869.136-1.708.253-2.547-3.003-3.319-8.25-7.213-16.646-7.213-8.745 0-17.17 4.285-24.6039 8.052-3.3816 1.718-6.6757 3.377-9.8921 4.606-1.2438 4.012-4.8294 6.969-9.2313 6.969-5.4222 0-9.8143-4.421-9.8143-9.867s4.3921-9.857 9.8143-9.857c2.7986 0 5.2959 1.22 7.0838 3.103 2.4002-1.005 4.9849-2.303 7.6572-3.669 8.3953-4.265 17.9183-9.096 28.9863-9.096 9.678 0 16.422 3.699 20.999 7.68 2.05-2.274 4.674-3.981 7.657-4.938-3.625-1.952-6.17-5.66-6.17-10.072 0-6.392 11.524-42.483 11.524-42.483z" fill="url(#b)"/><path d="m294.059 145.349s-11.956 1.025-19.876 5.298c0 0 31.503-.17 46.165 12.124 0 0-35.656-10.935-77.215 16.22 0 0 66.097-12.64 97.433 14.176 0 0-10.112-18.681-31.379-22.701 0 0 24.197-.963 32.484 3.058 0 0-7.158-15.39-15.271-19.058v-10.971c0-2.221-12.117-13.519-32.341-15.425z" fill="url(#c)"/><g fill="#272727"><path d="m288.676 194.405s5.099 4.439 7.258 8.541c0 0-4.661 4.598-9.116 6.862 0 0 13.495 4.242 17.049 9.259-7.195-2.257-19.482-1.411-22.442 4.687 8.215-.884 13.245 1.234 14.302 4.376 0 0-1.953 2.809-7.933 4.057-6.369 1.33-7.995 3.973-7.995 7.663 0 3.691 4.836 7.066 13.62 6.792 8.771-.279 32.695-3.892 34.503-49.07-1.808-4.248-23.661-12.923-39.302-12.827z"/><path d="m330.886 244.402c10.74-16.682 16.615-31.217 17.628-43.606 15.899 17.635 14.944 38.283 12.242 54.085-1.822-5.085-4.172-10.315-7.05-15.691 1.901 24.363-5.325 37.554-21.679 39.571-1.913-11.254-2.293-22.707-1.141-34.359z"/><path d="m137.004 93.0882c-2.984 4.5821-7.359 17.3218-13.123 38.2198-13.761 15.718-27.2038 37.655-40.3277 65.81-6.361 2.146-13.1114 5.11-20.2515 8.893 18.6758-35.157 36.9242-61.451 54.7442-78.88 3.89-12.905 10.209-24.253 18.958-34.0428z"/><path d="m172.478 129.116-43.54 20.504c12.407.209 22.26-2.043 29.559-6.754 7.3-4.711 11.96-9.294 13.981-13.75z"/><path d="m156.414 121.638c-.247-8.962-1.416-13.998-3.507-15.11-2.324-1.037-3.676-3.269-2.324-7.3451.833-2.5908.582-5.475-.754-8.6525l11.811-7.8756 13.292 8.3633c.465 2.951-.501 5.6726-2.898 8.1648 2.898 3.1291 2.898 7.1681-.459 11.8331.093 1.155.158 2.288.195 3.399.055 1.683-.01 4.09-.195 7.223z"/><path d="m320.405 259.695c-2.083 37.883 5.998 59.412 24.242 64.586 27.366 7.76 76.02 8.791 72.906 67.554 2.473 7.78 4.733 15.174 6.78 22.182-8.021 8.482-16.723 16.312-26.016 23.406-9.098-21.95-22.917-35.753-38.904-45.588-63.007-39.176-76.009-83.223-39.008-132.14z"/><path d="m159.717 380.257c32.993 82.673 85.808 29.701 126.607 49.067 18.655 8.855 28.832 25.11 30.529 48.766-15.906 3.696-32.479 5.648-49.508 5.648-33.018 0-64.324-7.338-92.378-20.472-.104-24.89-5.189-52.557-15.25-83.009z"/><path d="m222.304 156.698c8.559-2.36 15.554-7.69 20.985-15.988-.345 4.941-1.584 9.193-3.719 12.758 24.736-4.441 43.933-19.401 57.592-44.88-25.185-13.6691-51.147-4.345-65.062 12.66-9.277 11.336-12.542 23.152-9.796 35.45z"/></g></g></svg>

<svg width="458" height="534" viewBox="0 0 458 534" fill="none" xmlns="http://www.w3.org/2000/svg">
<g opacity="0.8">
<path d="M146.589 433.47L146.776 434.324C147.648 438.424 148.375 442.362 148.957 446.138C126.812 431.84 107.474 413.602 91.9424 392.422C95.7088 392.047 99.1273 391.508 102.203 390.805C114.761 407.136 129.735 421.532 146.589 433.47ZM266.048 51.7441C385.009 51.7441 481.456 147.73 481.456 266.149C481.456 313.653 465.936 357.547 439.668 393.082L435.658 382.945C458.756 349.792 472.29 309.543 472.29 266.149C472.29 152.808 379.958 60.9165 266.048 60.9165C240.976 60.9165 216.949 65.3683 194.723 73.5206L184.588 67.6054C209.718 57.38 237.222 51.7441 266.048 51.7441Z" fill="#272727" stroke="#272727"/>
<path d="M82.268 248.575L111.808 327.205C120.209 328.65 125.381 330.62 125.381 332.792L125.381 332.819C125.595 333.772 125.578 334.816 125.329 335.951L125.381 335.952L125.216 336.415C124.988 337.263 124.636 338.16 124.159 339.105C116.332 357.587 99.0229 370.628 77.7204 370.628C56.7309 370.628 38.8124 357.968 30.7216 339.918C30.0284 338.618 29.5428 337.416 29.2628 336.312C29.2207 336.195 29.1774 336.074 29.1345 335.952L29.1776 335.951C28.9581 334.938 28.9184 334.011 29.0583 333.17L29.1345 332.792L29.1432 332.638C29.3913 330.443 34.9194 328.464 43.6972 327.04L73.1727 248.575C74.5914 244.769 80.8396 244.769 82.268 248.575ZM238.095 248.565L267.629 327.177C275.638 328.541 280.753 330.38 281.314 332.417L281.261 332.31L281.383 332.567C281.79 333.541 281.834 334.666 281.514 335.941L281.515 335.943C281.346 336.609 281.084 337.306 280.725 338.043C273.098 357.09 255.252 370.618 233.548 370.618C212.077 370.618 193.819 357.371 186.008 338.657C185.543 337.742 185.172 336.862 184.984 336.037L184.965 335.953C184.964 335.95 184.963 335.946 184.962 335.943L184.963 335.941L184.925 335.729C184.813 334.984 184.861 334.052 185.069 332.933L185.13 332.621L185.139 332.567L185.159 332.466C185.664 330.355 191.061 328.453 199.511 327.068L229 248.565C230.419 244.759 236.667 244.759 238.095 248.565ZM185.162 332.466L185.139 332.567H185.141L185.162 332.466ZM77.7204 264.122L54.5825 325.711C61.3388 325.108 69.0588 324.766 77.2577 324.766L78.1827 324.767C86.4271 324.793 94.1642 325.165 100.894 325.799L77.7204 264.122ZM233.548 264.122L210.402 325.726C217.198 325.114 224.977 324.766 233.243 324.766L234.168 324.767C242.345 324.793 250.024 325.159 256.716 325.784L233.548 264.122ZM156.317 157.37C156.317 157.37 167.842 193.461 167.842 199.853C167.842 204.255 165.296 207.973 161.671 209.925C164.654 210.891 167.278 212.589 169.328 214.863C173.905 210.882 180.649 207.183 190.327 207.183C201.395 207.183 210.908 212.014 219.304 216.279C221.976 217.635 224.571 218.933 226.971 219.948C228.759 218.055 231.256 216.845 234.054 216.845C239.477 216.845 243.869 221.256 243.869 226.702C243.869 232.148 239.477 236.559 234.054 236.559C229.653 236.559 226.067 233.602 224.823 229.591C221.607 228.361 218.313 226.702 214.921 224.984C207.497 221.217 199.073 216.942 190.327 216.942C181.922 216.942 176.675 220.856 173.682 224.164C173.798 225.004 173.934 225.833 173.934 226.702C173.934 236.471 166.044 244.396 156.317 244.396C146.59 244.396 138.7 236.471 138.7 226.702C138.7 225.833 138.836 224.994 138.953 224.155C135.95 220.836 130.703 216.942 122.307 216.942C113.562 216.942 105.137 221.227 97.7031 224.994C94.3215 226.712 91.0274 228.371 87.811 229.6C86.5672 233.612 82.9816 236.569 78.5797 236.569C73.1575 236.569 68.7654 232.148 68.7654 226.702C68.7654 221.256 73.1575 216.845 78.5797 216.845C81.3783 216.845 83.8756 218.065 85.6635 219.948C88.0637 218.943 90.6484 217.645 93.3207 216.279C101.716 212.014 111.239 207.183 122.307 207.183C131.985 207.183 138.729 210.882 143.306 214.863C145.356 212.589 147.98 210.882 150.963 209.925C147.338 207.973 144.793 204.265 144.793 199.853C144.793 193.461 156.317 157.37 156.317 157.37Z" fill="url(#paint0_linear)"/>
<path d="M294.059 145.349C294.059 145.349 282.103 146.374 274.183 150.647C274.183 150.647 305.686 150.477 320.348 162.771C320.348 162.771 284.692 151.836 243.133 178.991C243.133 178.991 309.23 166.351 340.566 193.167C340.566 193.167 330.454 174.486 309.187 170.466C309.187 170.466 333.384 169.503 341.671 173.524C341.671 173.524 334.513 158.134 326.4 154.466V143.495C326.4 141.274 314.283 129.976 294.059 128.07V145.349Z" fill="url(#paint1_linear)"/>
<path d="M288.676 194.405C288.676 194.405 293.775 198.844 295.934 202.946C295.934 202.946 291.273 207.544 286.818 209.808C286.818 209.808 300.313 214.05 303.867 219.067C296.672 216.81 284.385 217.656 281.425 223.754C289.64 222.87 294.67 224.988 295.727 228.13C295.727 228.13 293.774 230.939 287.794 232.187C281.425 233.517 279.799 236.16 279.799 239.85C279.799 243.541 284.635 246.916 293.419 246.642C302.19 246.363 326.114 242.75 327.922 197.572C326.114 193.324 304.261 184.649 288.62 184.745L288.676 194.405Z" fill="#272727"/>
<path d="M330.886 244.402C341.626 227.72 347.501 213.185 348.514 200.796C364.413 218.431 363.458 239.079 360.756 254.881C358.934 249.796 356.584 244.566 353.706 239.19C355.607 263.553 348.381 276.744 332.027 278.761C330.114 267.507 329.734 256.054 330.886 244.402Z" fill="#272727"/>
<path d="M137.004 93.0882C134.02 97.6703 129.645 110.41 123.881 131.308C110.12 147.026 96.6772 168.963 83.5533 197.118C77.1923 199.264 70.4419 202.228 63.3018 206.011C81.9776 170.854 100.226 144.56 118.046 127.131C121.936 114.226 128.255 102.878 137.004 93.0882Z" fill="#272727"/>
<path d="M172.478 129.116L128.938 149.62C141.345 149.829 151.198 147.577 158.497 142.866C165.797 138.155 170.457 133.572 172.478 129.116Z" fill="#272727"/>
<path d="M156.414 121.638C156.167 112.676 154.998 107.64 152.907 106.528C150.583 105.491 149.231 103.259 150.583 99.1829C151.416 96.5921 151.165 93.7079 149.829 90.5304L161.64 82.6548L174.932 91.0181C175.397 93.9691 174.431 96.6907 172.034 99.1829C174.932 102.312 174.932 106.351 171.575 111.016C171.668 112.171 171.733 113.304 171.77 114.415C171.825 116.098 171.76 118.505 171.575 121.638H156.414Z" fill="#272727"/>
<path d="M320.405 259.695C318.322 297.578 326.403 319.107 344.647 324.281C372.013 332.041 420.667 333.072 417.553 391.835C420.026 399.615 422.286 407.009 424.333 414.017C416.312 422.499 407.61 430.329 398.317 437.423C389.219 415.473 375.4 401.67 359.413 391.835C296.406 352.659 283.404 308.612 320.405 259.695Z" fill="#272727"/>
<path d="M159.717 380.257C192.71 462.93 245.525 409.958 286.324 429.324C304.979 438.179 315.156 454.434 316.853 478.09C300.947 481.786 284.374 483.738 267.345 483.738C234.327 483.738 203.021 476.4 174.967 463.266C174.863 438.376 169.778 410.709 159.717 380.257Z" fill="#272727"/>
<path d="M222.304 156.698C230.863 154.338 237.858 149.008 243.289 140.71C242.944 145.651 241.705 149.903 239.57 153.468C264.306 149.027 283.503 134.067 297.162 108.588C271.977 94.9189 246.015 104.243 232.1 121.248C222.823 132.584 219.558 144.4 222.304 156.698Z" fill="#272727"/>
</g>
<defs>
<linearGradient id="paint0_linear" x1="236" y1="193" x2="-175" y2="453" gradientUnits="userSpaceOnUse">
<stop stop-color="#3D3D3D"/>
<stop offset="1" stop-color="#272727"/>
</linearGradient>
<linearGradient id="paint1_linear" x1="323.844" y1="138.946" x2="213.098" y2="292.958" gradientUnits="userSpaceOnUse">
<stop stop-color="#3D3D3D"/>
<stop offset="1" stop-color="#272727"/>
</linearGradient>
</defs>
</svg>
